images/icons/paypal_icon.svg

<svg width="40" height="28" viewBox="0 0 34 24" fill="none" xmlns="http://www.w3.org/2000/svg">
<rect x="0.5" y="0.5" width="40" height="28" rx="2.5" fill="white"/>
<path fill-rule="evenodd" clip-rule="evenodd" d="M14.6142 18.4483L14.8349 16.9992L14.3432 16.9873H11.9953L13.627 6.2937C13.6321 6.26132 13.6485 6.23126 13.6725 6.20987C13.6966 6.18849 13.7274 6.17676 13.7595 6.17676H17.7185C19.0329 6.17676 19.9399 6.45939 20.4134 7.01734C20.6355 7.27908 20.7769 7.55267 20.8453 7.85364C20.9171 8.16951 20.9183 8.54685 20.8483 9.00715L20.8432 9.04063V9.33561L21.0652 9.46563C21.2521 9.56815 21.4007 9.68546 21.5147 9.81975C21.7046 10.0436 21.8274 10.3281 21.8793 10.6652C21.933 11.012 21.9152 11.4248 21.8274 11.892C21.7261 12.4295 21.5623 12.8976 21.3411 13.2805C21.1378 13.6334 20.8786 13.9262 20.5709 14.153C20.2771 14.3686 19.9281 14.5322 19.5335 14.6369C19.151 14.7398 18.715 14.7917 18.2368 14.7917H17.9287C17.7085 14.7917 17.4945 14.8737 17.3265 15.0207C17.158 15.1708 17.0466 15.3758 17.0125 15.6L16.9892 15.7305L16.5992 18.2848L16.5815 18.3785C16.5768 18.4082 16.5688 18.423 16.557 18.433C16.5464 18.4422 16.5313 18.4483 16.5165 18.4483H14.6142Z" fill="#28356A"/>
<path fill-rule="evenodd" clip-rule="evenodd" d="M21.2756 9.07458C21.2639 9.15267 21.2503 9.23246 21.2352 9.31445C20.7131 12.0851 18.9269 13.0422 16.6456 13.0422H15.4841C15.2051 13.0422 14.9699 13.2516 14.9265 13.536L14.1634 18.5393C14.1351 18.7261 14.2744 18.8944 14.4567 18.8944H16.5169C16.7608 18.8944 16.968 18.7112 17.0064 18.4626L17.0267 18.3544L17.4146 15.8102L17.4395 15.6707C17.4774 15.4211 17.6852 15.2378 17.9291 15.2378H18.2372C20.2331 15.2378 21.7957 14.4003 22.2524 11.9765C22.4431 10.964 22.3444 10.1185 21.8396 9.52389C21.6868 9.34464 21.4973 9.1958 21.2756 9.07458Z" fill="#298FC2"/>
<path fill-rule="evenodd" clip-rule="evenodd" d="M20.7292 8.84956C20.6494 8.82549 20.5671 8.80374 20.4827 8.78407C20.3978 8.76488 20.3109 8.7479 20.2214 8.73299C19.9083 8.68069 19.5651 8.65588 19.1975 8.65588H16.0945C16.018 8.65588 15.9454 8.67372 15.8805 8.70598C15.7373 8.7771 15.631 8.91714 15.6053 9.08857L14.9451 13.4101L14.9262 13.5361C14.9696 13.2516 15.2047 13.0423 15.4837 13.0423H16.6453C18.9265 13.0423 20.7128 12.0847 21.2349 9.31451C21.2505 9.23252 21.2636 9.15273 21.2753 9.07464C21.1432 9.00218 21.0002 8.94023 20.8461 8.88744C20.8081 8.87437 20.7688 8.86178 20.7292 8.84956Z" fill="#22284F"/>
<path fill-rule="evenodd" clip-rule="evenodd" d="M15.6054 9.08862C15.6312 8.91718 15.7375 8.77715 15.8807 8.70652C15.9461 8.67414 16.0182 8.6563 16.0947 8.6563H19.1977C19.5653 8.6563 19.9085 8.68123 20.2216 8.73353C20.3111 8.74831 20.398 8.76542 20.4829 8.7846C20.5673 8.80415 20.6496 8.82603 20.7294 8.84998C20.769 8.8622 20.8083 8.8749 20.8467 8.88749C21.0007 8.94028 21.1439 9.00272 21.276 9.07469C21.4313 8.05082 21.2747 7.3537 20.7391 6.72245C20.1486 6.0274 19.0829 5.72998 17.7192 5.72998H13.7601C13.4815 5.72998 13.2439 5.9393 13.2009 6.22426L11.5519 17.0279C11.5194 17.2416 11.6789 17.4344 11.8874 17.4344H14.3316L15.6054 9.08862Z" fill="#28356A"/>
<rect x="0.5" y="0.5" width="40" height="28" rx="2.5" stroke="#F2F4F7"/>
</svg>

<svg xmlns="http://www.w3.org/2000/svg" width="40" height="28" fill="none" viewBox="0 0 34 24"><rect width="40" height="28" x=".5" y=".5" fill="#fff" rx="2.5"/><g fill-rule="evenodd"><path fill="#28356a" d="m14.614 18.448.221-1.449-.492-.012h-2.348l1.632-10.694c.005-.032.021-.062.045-.084s.055-.033.087-.033h3.959c1.314 0 2.221.283 2.695.841.222.262.364.535.432.836.072.316.073.693.003 1.154l-.005.033v.295l.222.13c.187.103.335.22.45.354.19.224.313.508.365.845.054.347.036.76-.052 1.227-.101.538-.265 1.006-.486 1.389a2.82 2.82 0 0 1-.77.873 3.08 3.08 0 0 1-1.037.484 5.02 5.02 0 0 1-1.297.155h-.308a.916.916 0 0 0-.602.229.97.97 0 0 0-.314.579l-.023.13-.39 2.554-.018.094c-.005.03-.013.044-.024.055s-.026.015-.04.015h-1.902z"/><path fill="#298fc2" d="m21.276 9.075-.04.24c-.522 2.771-2.308 3.728-4.59 3.728h-1.162a.57.57 0 0 0-.558.494l-.763 5.003a.304.304 0 0 0 .293.355h2.06a.5.5 0 0 0 .489-.432l.02-.108.388-2.544.025-.139a.5.5 0 0 1 .49-.433h.308c1.996 0 3.558-.838 4.015-3.261.191-1.012.092-1.858-.413-2.453a1.98 1.98 0 0 0-.564-.449z"/><path fill="#22284f" d="m20.729 8.85-.246-.065-.261-.051a6.25 6.25 0 0 0-1.024-.077h-3.103a.48.48 0 0 0-.214.05.51.51 0 0 0-.275.383l-.66 4.322-.019.126a.57.57 0 0 1 .558-.494h1.162c2.281 0 4.068-.958 4.59-3.728l.04-.24a2.73 2.73 0 0 0-.429-.187l-.117-.038z"/><path fill="#28356a" d="M15.605 9.089a.51.51 0 0 1 .275-.382.48.48 0 0 1 .214-.05h3.103a6.25 6.25 0 0 1 1.024.077l.261.051.246.065.117.038a2.78 2.78 0 0 1 .429.187c.155-1.024-.001-1.721-.537-2.352-.591-.695-1.656-.992-3.02-.992H13.76a.57.57 0 0 0-.559.494l-1.649 10.804a.348.348 0 0 0 .335.407h2.444l1.274-8.346z"/></g><rect width="40" height="28" x=".5" y=".5" stroke="#f2f4f7" rx="2.5"/></svg>
